X:17
T:Two to the Bar Set                                                            
M:2/4                                                                           
L:1/8                                                                           
C:No. 1                                                                         
K:D                                                                             
A|d>f ed|BA FE|DE FA|BA FA|d>f ed|BA FE|FA EA|1 D3 A:|2 D3 z ||                 
A>F ED|BA FB|A>F ED|EF GB|A>F ED|BA FB|AF ED|D3 z:|
